dist/assets/img/message.svg

<svg width="16" height="14" viewBox="0 0 16 14" fill="none" xmlns="http://www.w3.org/2000/svg">
	<path d="M14.0199 3.12708C14.3173 3.7927 14.4433 4.70003 14.66 6.25985C14.9925 8.654 15.1588 9.85107 14.7932 10.7808C14.4723 11.597 13.8797 12.2776 13.1154 12.7077C12.2448 13.1977 11.0362 13.1977 8.61911 13.1977H7.38089C4.96376 13.1977 3.7552 13.1977 2.88461 12.7077C2.12032 12.2776 1.52774 11.597 1.20681 10.7808C0.841235 9.85107 1.0075 8.654 1.34002 6.25985C1.54286 4.79935 1.66626 3.9109 1.92532 3.25729M14.0199 3.12708C13.9618 2.99711 13.8972 2.87635 13.8241 2.76175C13.4297 2.1436 12.8655 1.6523 12.1989 1.34675C11.4426 1 10.5014 1 8.6191 1H7.38089C5.49859 1 4.55744 1 3.80105 1.34675C3.13453 1.6523 2.57027 2.1436 2.17594 2.76175C2.07899 2.91372 1.99697 3.07652 1.92532 3.25729M14.0199 3.12708L13.9524 3.19458L13.2982 3.84878C10.757 6.38997 9.48639 7.66057 7.9075 7.66057C6.3286 7.66057 5.05801 6.38997 2.51681 3.84878L1.92532 3.25729" stroke="#72BF44" stroke-width="1.5" />
</svg>

<svg width="16" height="14" fill="none" xmlns="http://www.w3.org/2000/svg"><path d="M14.02 3.127c.297.666.423 1.573.64 3.133.332 2.394.499 3.591.133 4.52a3.811 3.811 0 0 1-1.678 1.928c-.87.49-2.079.49-4.496.49H7.381c-2.417 0-3.626 0-4.496-.49a3.811 3.811 0 0 1-1.678-1.927c-.366-.93-.2-2.127.133-4.521.203-1.46.326-2.35.585-3.003m12.095-.13a2.8 2.8 0 0 0-.196-.365A3.812 3.812 0 0 0 12.2 1.347C11.443 1 10.5 1 8.619 1H7.381c-1.882 0-2.824 0-3.58.347a3.812 3.812 0 0 0-1.625 1.415 2.895 2.895 0 0 0-.25.495m12.094-.13-.068.068-.654.654C10.757 6.39 9.486 7.66 7.908 7.66c-1.58 0-2.85-1.271-5.391-3.812l-.592-.592" stroke="#72BF44" stroke-width="1.5"/></svg>
